custom/icons/categories.svg

<svg height="20" width="19" xmlns="http://www.w3.org/2000/svg"><g fill="none" fill-rule="evenodd"><path d="m-3-2h24v24h-24z"/><path d="m9 0-5.5 9h11zm0 3.84 1.93 3.16h-3.87zm5.5 7.16c-2.49 0-4.5 2.01-4.5 4.5s2.01 4.5 4.5 4.5 4.5-2.01 4.5-4.5-2.01-4.5-4.5-4.5zm0 7a2.5 2.5 0 0 1 0-5 2.5 2.5 0 0 1 0 5zm-14.5 1.5h8v-8h-8zm2-6h4v4h-4z" fill="#fff" fill-rule="nonzero"/></g></svg>

<svg height="20" width="19" xmlns="http://www.w3.org/2000/svg"><g fill="none" fill-rule="evenodd"><path d="M-3-2h24v24H-3z"/><path d="M9 0L3.5 9h11zm0 3.84L10.93 7H7.06zM14.5 11c-2.49 0-4.5 2.01-4.5 4.5s2.01 4.5 4.5 4.5 4.5-2.01 4.5-4.5-2.01-4.5-4.5-4.5zm0 7a2.5 2.5 0 0 1 0-5 2.5 2.5 0 0 1 0 5zM0 19.5h8v-8H0zm2-6h4v4H2z" fill="#fff" fill-rule="nonzero"/></g></svg>
